static/img/fielmannlogo.svg

<?xml version="1.0" encoding="UTF-8"?>
<svg width="125px" height="28px" viewBox="0 0 125 28" version="1.1" xmlns="http://www.w3.org/2000/svg" xmlns:xlink="http://www.w3.org/1999/xlink">
    <!-- Generator: Sketch 56.3 (81716) - https://sketch.com -->
    <title>fielmannlogo</title>
    <desc>Created with Sketch.</desc>
    <g id="Page-1" stroke="none" stroke-width="1" fill="none" fill-rule="evenodd">
        <g id="Artboard-Copy-8" transform="translate(-273.000000, -516.000000)" fill="#1A1A1A" fill-rule="nonzero">
            <g id="Group" transform="translate(115.000000, 516.000000)">
                <g id="fielmannlogo" transform="translate(158.000000, 0.000000)">
                    <path d="M2.7201087,16.9293967 L2.7201087,8.44672657 C2.7201087,7.54813864 2.7201087,6.64955071 3.10869565,5.75096277 C3.56793478,4.63671374 4.41576087,3.7381258 5.44021739,3.23491656 C6.04076087,2.94736842 6.67663043,2.80359435 7.34782609,2.80359435 C8.08967391,2.80359435 8.86684783,2.98331194 9.53804348,3.34274711 C9.99728261,3.59435173 10.4211957,3.91784339 10.7744565,4.31322208 L13,2.62387677 C12.8233696,2.40821566 12.611413,2.19255456 12.3994565,1.97689345 C11.2336957,0.862644416 9.71467391,0.179717587 8.16032609,0.0359435173 C7.91304348,0 7.63043478,0 7.38315217,0 C6.2173913,0 5.05163043,0.287548139 4.0625,0.790757381 C2.68478261,1.50962773 1.55434783,2.62387677 0.8125,4.02567394 C0.45923913,4.70860077 0.247282609,5.3915276 0.141304348,6.07445443 C0.0706521739,6.54172015 0,7.00898588 0,7.51219512 L0,8.05134788 L0,8.05134788 L0,28 L2.75543478,28 L2.75543478,19.661104 L9.2201087,19.661104 L9.2201087,16.9293967 L2.7201087,16.9293967 L2.7201087,16.9293967 Z" id="Shape"></path>
                    <polygon id="Shape" points="13 11 13 28 16 28 15.9620253 11"></polygon>
                    <path d="M13.2518337,5.15231279 C12.5085575,5.46746402 12,6.2159482 12,7.00382628 C12,7.83109827 12.5085575,8.54018855 13.2518337,8.85533978 C14.1124694,9.20988492 15.1687042,8.89473368 15.6772616,8.1068556 C16.1075795,7.43715923 16.1075795,6.53109943 15.6772616,5.86140306 C15.1687042,5.07352498 14.1124694,4.79776765 13.2518337,5.15231279 L13.2518337,5.15231279 Z" id="Shape"></path>
                    <polygon id="Shape" points="40 28 42.9620253 28 43 1 40 1"></polygon>
                    <path d="M66.5317324,12.5462913 C66.2435678,11.877452 65.8113208,11.2790168 65.3070326,10.7509858 C64.3344768,9.80052988 63.0017153,9.16689262 61.6329331,9.02608434 C60.4442539,8.92047813 59.1475129,9.13169055 58.102916,9.73012574 C57.4545455,10.1173485 56.9502573,10.6101775 56.4459691,11.1382085 C56.2298456,10.9269961 56.0497427,10.7157837 55.8336192,10.5045713 C55.4373928,10.1525506 55.0051458,9.83573195 54.5368782,9.62451953 C53.3121784,9.06128641 51.9073756,8.92047813 50.5746141,9.20209469 C49.4939966,9.44850918 48.5214408,9.97654023 47.728988,10.7157837 C46.9365352,11.4902292 46.3962264,12.4758872 46.1801029,13.5319493 C46.0720412,14.0951824 46,14.6584155 46,15.2216486 L46,28 L48.7735849,28 L48.7735849,15.1864466 C48.7735849,14.7288197 48.7735849,14.2359907 48.8816467,13.7783638 C49.0617496,13.0743224 49.4939966,12.4758872 50.1063465,12.0886644 C50.7907376,11.6662396 51.619211,11.5254313 52.4116638,11.6310375 C53.3121784,11.7366437 54.1046312,12.2294727 54.6089194,12.9687162 C55.0051458,13.5319493 55.1492281,14.1655865 55.1492281,14.8344259 L55.1492281,27.9647979 L57.9588336,27.9647979 L57.9588336,15.1512445 C57.9588336,14.6584155 57.9948542,14.1655865 58.1389365,13.6727576 C58.4271012,12.898312 58.9674099,12.2998768 59.7238422,11.9478561 C60.4802744,11.6310375 61.3447684,11.5958354 62.1012007,11.877452 C62.8936535,12.1590686 63.542024,12.7223017 63.9022298,13.4263431 C64.1903945,13.9895762 64.2264151,14.5880114 64.2264151,15.2216486 L64.2264151,27.9295959 L67,27.9295959 L67,15.6792755 C67,15.1512445 67,14.6584155 66.9279588,14.1303845 C66.8919383,13.6023534 66.7478559,13.0743224 66.5317324,12.5462913 L66.5317324,12.5462913 Z" id="Shape"></path>
                    <path d="M87.8309539,13.7957101 C87.1224411,12.5973333 86.1305233,11.539942 84.9614772,10.7292754 C83.4381747,9.67188406 81.6668928,9.03744928 79.7893339,9.0022029 C78.0889032,8.96695652 76.3884726,9.35466667 74.9360214,10.1653333 C73.3418676,11.0112464 72.031119,12.3506087 71.1809037,13.9366957 C70.5078165,15.1703188 70.0827089,16.5801739 70.0118576,17.990029 C69.9410063,19.3998841 70.1889858,20.8097391 70.7203704,22.1138551 C71.3580319,23.6294493 72.3853754,25.004058 73.7315497,26.0262029 C75.2902778,27.2245797 77.2741136,27.8590145 79.2579493,27.9295072 C81.0292313,28 82.7650876,27.5065507 84.28839,26.6606377 C85.0323285,26.2376812 85.66999,25.7089855 86.2722258,25.1097971 L86.2722258,28 L89,28 L89,19.2941449 C89,18.553971 88.9645744,17.7785507 88.9291487,17.0383768 C88.8228718,15.8752464 88.4331898,14.7826087 87.8309539,13.7957101 L87.8309539,13.7957101 Z M84.784349,22.7130435 C83.509026,24.2638841 81.5251902,25.1802899 79.5059288,25.1802899 C77.4866674,25.1802899 75.5028316,24.2286377 74.2275086,22.6777971 C73.2710164,21.5146667 72.6333549,19.8933333 72.6687805,18.3777391 C72.7042061,16.7916522 73.2355907,15.276058 74.2275086,14.0424348 C75.2194265,12.844058 76.6364521,12.0333913 78.1597545,11.7161739 C79.683057,11.3989565 81.3126364,11.6456812 82.7296619,12.3858551 C84.5363695,13.3375072 85.8116925,15.0645797 86.2013745,17.0736232 C86.5910566,19.0474203 86.059672,21.1622029 84.784349,22.7130435 L84.784349,22.7130435 Z" id="Shape"></path>
                    <path d="M105.098086,11.4444961 C104.165072,10.4208082 102.980861,9.67951695 101.65311,9.29122155 C100.253589,8.90292615 98.7464115,8.90292615 97.34689,9.29122155 C96.0909091,9.67951695 94.9066986,10.3855086 94.0095694,11.3385973 C93.1483254,12.2563864 92.4665072,13.4212726 92.1794258,14.656758 C92.0717703,15.2215513 92,15.7863446 92,16.3511379 L92,28 L94.7272727,28 L94.7272727,17.2689271 L94.7272727,16.2452392 C94.7272727,15.6804459 94.8708134,15.1156526 95.0861244,14.5861588 C95.5526316,13.5271714 96.4138756,12.5740827 97.4904306,12.0798885 C98.8181818,11.4797956 100.397129,11.5150952 101.72488,12.2210869 C102.62201,12.6799814 103.375598,13.4565722 103.80622,14.3390618 C104.165072,15.0450534 104.272727,15.8216442 104.272727,16.598235 L104.272727,28 L107,28 L107,16.9512308 C107,16.1040409 106.92823,15.2215513 106.712919,14.4096609 C106.461722,13.3153739 105.88756,12.291686 105.098086,11.4444961 L105.098086,11.4444961 Z" id="Shape"></path>
                    <path d="M124.633831,14.0784148 C124.240257,12.8801012 123.524666,11.7875211 122.594398,10.9416526 C121.413673,9.84907251 119.875153,9.17942664 118.265074,9.03844857 C116.833892,8.89747049 115.40271,9.14418212 114.114647,9.77858347 C112.719245,10.4834739 111.53852,11.6112985 110.822929,12.9505902 C110.500914,13.5849916 110.250457,14.2546374 110.143118,14.9595278 C110.071559,15.4177066 110,15.8758853 110,16.3693086 L110,28 L112.719245,28 L112.719245,17.2856661 C112.719245,16.3693086 112.719245,15.4881956 113.11282,14.6070826 C113.577954,13.549747 114.436663,12.598145 115.510049,12.1047218 C116.833892,11.5055649 118.408192,11.5408094 119.732035,12.2456998 C120.626523,12.7038786 121.377893,13.479258 121.807248,14.360371 C122.165043,15.0652614 122.272382,15.8406408 122.272382,16.6160202 L122.272382,28 L124.991627,28 L124.991627,16.9684654 C125.027406,15.9816189 124.955847,14.9947723 124.633831,14.0784148 L124.633831,14.0784148 Z" id="Shape"></path>
                    <path d="M35.4148239,13.1860181 C34.4950894,11.8471471 33.2216109,10.6844434 31.735886,9.97977452 C30.1086634,9.16940526 28.2338201,8.85230425 26.4297255,9.06370493 C24.6610054,9.2751056 22.963034,9.97977452 21.5834323,11.0720113 C20.1684562,12.1994816 19.0718497,13.7849867 18.4704848,15.4761921 C17.86912,17.2730978 17.86912,19.2109373 18.3289872,21.0430765 C18.6473569,22.3819475 19.3194705,23.5446512 20.2038306,24.5664211 C21.1943139,25.7291248 22.432418,26.6804278 23.8473941,27.2793964 C25.4746166,27.9488319 27.2787112,28.1602326 29.0120569,27.878365 C30.5331563,27.6669643 31.9835068,26.9975289 33.1862365,26.0814593 C34.1767198,25.3415569 34.9549567,24.3902539 35.6624447,23.4389508 L33.2923597,22.029613 C33.0093645,22.5228812 32.6909949,22.980916 32.266502,23.3684839 C31.2406443,24.319787 30.0025402,25.0244559 28.6229385,25.2358566 C27.34946,25.4472572 26.0406071,25.3063235 24.8732518,24.8130552 C23.4229013,24.2140866 22.1494228,23.0513829 21.4065603,21.6772785 C21.0881907,21.07831 20.9113186,20.4441079 20.8051954,19.7746725 L36.9005488,19.7746725 C37.006672,18.9995367 37.0420464,18.1891674 36.9359232,17.4140316 C36.8298,15.8989934 36.299184,14.4544221 35.4148239,13.1860181 L35.4148239,13.1860181 Z M20.769821,17.132164 C21.0174419,16.2865613 21.3004371,15.4761921 21.7603043,14.7362897 C22.5739156,13.5031191 23.7412709,12.5518161 25.156247,12.0233144 C26.6419719,11.4948127 28.3045689,11.4595792 29.7902938,11.9880809 C31.0637723,12.4461157 32.1603788,13.256485 33.0093645,14.3487218 C33.6814781,15.2295579 33.9998478,16.0399272 34.2474686,17.0969306 L20.769821,17.132164 L20.769821,17.132164 L20.769821,17.132164 Z" id="Shape"></path>
                </g>
            </g>
        </g>
    </g>
</svg>

<svg width="125" height="28" viewBox="0 0 125 28" xmlns="http://www.w3.org/2000/svg"><g fill="#1A1A1A" fill-rule="nonzero"><path d="M2.72 16.93V8.446c0-.899 0-1.797.389-2.696A4.88 4.88 0 015.44 3.235a4.362 4.362 0 011.908-.431c.742 0 1.519.18 2.19.539.46.251.883.575 1.236.97L13 2.623c-.177-.215-.389-.43-.6-.646A7.135 7.135 0 008.16.036C7.913 0 7.63 0 7.383 0a7.42 7.42 0 00-3.32.79 7.69 7.69 0 00-3.25 3.236A6.632 6.632 0 00.14 6.074C.071 6.542 0 7.01 0 7.512V28h2.755v-8.339H9.22V16.93h-6.5zM13 11v17h3l-.038-17z"/><path d="M13.252 5.152C12.509 5.467 12 6.216 12 7.004c0 .827.509 1.536 1.252 1.851.86.355 1.917.04 2.425-.748.43-.67.43-1.576 0-2.246-.508-.787-1.565-1.063-2.425-.709zM40 28h2.962L43 1h-3zM66.532 12.546c-.288-.669-.72-1.267-1.225-1.795a6.262 6.262 0 00-3.674-1.725c-1.189-.106-2.485.106-3.53.704-.648.387-1.153.88-1.657 1.408-.216-.211-.396-.422-.612-.633-.397-.352-.829-.67-1.297-.88a6.375 6.375 0 00-3.962-.423 6.178 6.178 0 00-2.846 1.514 5.494 5.494 0 00-1.549 2.816 8.977 8.977 0 00-.18 1.69V28h2.774V15.186c0-.457 0-.95.108-1.408a2.81 2.81 0 011.224-1.69c.685-.422 1.513-.563 2.306-.457.9.106 1.693.598 2.197 1.338.396.563.54 1.197.54 1.865v13.13h2.81V15.152c0-.493.036-.985.18-1.478a3.019 3.019 0 011.585-1.725c.756-.317 1.62-.352 2.377-.07.793.281 1.441.844 1.801 1.548.288.564.324 1.162.324 1.796V27.93H67V15.68c0-.529 0-1.022-.072-1.55-.036-.528-.18-1.056-.396-1.584zM87.831 13.796a9.892 9.892 0 00-2.87-3.067c-1.523-1.057-3.294-1.692-5.172-1.727-1.7-.035-3.4.353-4.853 1.163-1.594.846-2.905 2.186-3.755 3.772-.673 1.233-1.098 2.643-1.17 4.053a9.66 9.66 0 00.71 4.124 9.582 9.582 0 003.01 3.912c1.56 1.199 3.543 1.833 5.527 1.904 1.771.07 3.507-.423 5.03-1.27.744-.422 1.382-.951 1.984-1.55V28H89v-8.706c0-.74-.035-1.515-.07-2.256-.107-1.163-.497-2.255-1.099-3.242zm-3.047 8.917c-1.275 1.55-3.259 2.467-5.278 2.467-2.02 0-4.003-.951-5.278-2.502-.957-1.163-1.595-2.785-1.56-4.3a7.132 7.132 0 011.56-4.336c.991-1.198 2.408-2.009 3.932-2.326 1.523-.317 3.153-.07 4.57.67a6.747 6.747 0 013.471 4.688 6.883 6.883 0 01-1.417 5.639zM105.098 11.444a7.495 7.495 0 00-3.445-2.153 8.105 8.105 0 00-4.306 0c-1.256.389-2.44 1.095-3.337 2.048-.862.917-1.543 2.082-1.83 3.318A9.059 9.059 0 0092 16.35V28h2.727V16.245c0-.565.144-1.13.36-1.659.466-1.059 1.327-2.012 2.403-2.506a4.828 4.828 0 014.235.141 4.786 4.786 0 012.081 2.118c.36.706.467 1.483.467 2.26V28H107V16.951c0-.847-.072-1.73-.287-2.541-.251-1.095-.825-2.118-1.615-2.966zM124.634 14.078a7.388 7.388 0 00-2.04-3.136 7.337 7.337 0 00-4.329-1.904 7.662 7.662 0 00-4.15.74c-1.396.705-2.576 1.833-3.292 3.173-.322.634-.573 1.304-.68 2.009-.071.458-.143.916-.143 1.41V28h2.72V17.286c0-.917 0-1.798.393-2.679.465-1.057 1.324-2.009 2.397-2.502a4.808 4.808 0 014.222.14 4.775 4.775 0 012.075 2.115c.358.705.465 1.48.465 2.256V28h2.72V16.968c.035-.986-.036-1.973-.358-2.89zM35.415 13.186c-.92-1.339-2.193-2.502-3.68-3.206a9.515 9.515 0 00-5.305-.916 9.71 9.71 0 00-4.847 2.008c-1.415 1.127-2.511 2.713-3.113 4.404-.6 1.797-.6 3.735-.141 5.567.318 1.339.99 2.502 1.875 3.523.99 1.163 2.228 2.114 3.643 2.713 1.628.67 3.432.881 5.165.6 1.521-.212 2.972-.881 4.174-1.798.99-.74 1.769-1.69 2.476-2.642l-2.37-1.41c-.283.494-.601.952-1.025 1.34-1.026.95-2.264 1.655-3.644 1.867a6.798 6.798 0 01-3.75-.423c-1.45-.599-2.724-1.762-3.466-3.136-.319-.599-.496-1.233-.602-1.902h16.096c.106-.775.141-1.586.035-2.361-.106-1.515-.637-2.96-1.521-4.228zM20.77 17.132c.247-.845.53-1.656.99-2.396a6.975 6.975 0 013.396-2.713c1.486-.528 3.149-.563 4.634-.035a7.11 7.11 0 013.22 2.36c.671.882.99 1.692 1.237 2.749l-13.477.035z"/></g></svg>
